app/assets/images/social-fb.svg

<?xml version="1.0" encoding="UTF-8" standalone="no"?>
<svg width="26px" height="26px" viewBox="0 0 26 26" version="1.1" xmlns="http://www.w3.org/2000/svg" xmlns:xlink="http://www.w3.org/1999/xlink" xmlns:sketch="http://www.bohemiancoding.com/sketch/ns">
    <!-- Generator: Sketch 3.3.3 (12072) - http://www.bohemiancoding.com/sketch -->
    <title>social-fb</title>
    <desc>Created with Sketch.</desc>
    <defs></defs>
    <g id="Footers" stroke="none" stroke-width="1" fill="none" fill-rule="evenodd" sketch:type="MSPage">
        <g id="Style-Guide-Footers" sketch:type="MSArtboardGroup" transform="translate(-1050.000000, -1312.000000)">
            <g id="Item-Limits" sketch:type="MSLayerGroup" transform="translate(134.000000, 874.000000)">
                <g id="3" transform="translate(1.000000, 395.000000)" sketch:type="MSShapeGroup">
                    <g id="social-icons" transform="translate(916.000000, 44.000000)">
                        <g id="social-fb">
                            <circle id="Oval-3" stroke="#3E53A4" stroke-width="2" cx="12" cy="12" r="12"></circle>
                            <path d="M13.7631538,7.15384615 L14.7307692,7.15384615 C14.8799231,7.15384615 15,7.03538462 15,6.88461538 L15,5.26923077 C15,5.12384615 14.8799231,5 14.7307692,5 L13.145,5 C11.5516923,5 10.1538462,6.27076923 10.1538462,7.71976923 L10.1538462,9.84615385 L8.26923077,9.84615385 C8.12115385,9.84615385 8,9.97 8,10.1153846 L8,12.2692308 C8,12.4205385 8.12115385,12.5384615 8.26923077,12.5384615 L10.1538462,12.5384615 L10.1538462,17.6538462 C10.1538462,17.8051538 10.275,17.9230769 10.4230769,17.9230769 L12.0384615,17.9230769 C12.1876154,17.9230769 12.3076923,17.8051538 12.3076923,17.6538462 L12.3076923,12.5384615 L14.0722308,12.5384615 C14.1923077,12.5384615 14.2973077,12.4576923 14.3312308,12.3446154 L14.9493846,10.1907692 C14.9730769,10.1105385 14.9569231,10.0238462 14.9063077,9.95384615 C14.8546154,9.88976923 14.776,9.84615385 14.6909231,9.84615385 L12.3076923,9.84615385 L12.3076923,8.18230769 C12.3076923,7.69769231 13.1751538,7.15384615 13.7631538,7.15384615" id="Fill-7422" fill="#3E53A4"></path>
                        </g>
                    </g>
                </g>
            </g>
        </g>
    </g>
</svg>

<svg width="26" height="26" viewBox="0 0 26 26" xmlns="http://www.w3.org/2000/svg" xmlns:sketch="http://www.bohemiancoding.com/sketch/ns"><title>social-fb</title><desc>Created with Sketch.</desc><g transform="translate(1 1)" sketch:type="MSShapeGroup" fill="none"><circle stroke="#3E53A4" stroke-width="2" cx="12" cy="12" r="12"/><path d="M13.763 7.154h.968c.149 0 .269-.118.269-.269v-1.615c0-.145-.12-.269-.269-.269h-1.586c-1.593 0-2.991 1.271-2.991 2.72v2.126h-1.885c-.148 0-.269.124-.269.269v2.154c0 .151.121.269.269.269h1.885v5.115c0 .151.121.269.269.269h1.615c.149 0 .269-.118.269-.269v-5.115h1.765c.12 0 .225-.081.259-.194l.618-2.154c.024-.08.008-.167-.043-.237-.052-.064-.13-.108-.215-.108h-2.383v-1.664c0-.485.867-1.028 1.455-1.028" fill="#3E53A4"/></g></svg>
